N5 G70 G75 G90
'bottom part'
' post holes'
' XS & PMH, 04 Oct 2019'
'Change To Tool  T1'
' #45 SCREW MACH DRILL'
' S2400'
N10 G00 T1 M06
N15 G00 G90 X0 Y.225
N20 G01 Z 0.25 F50.0N25 G01 Z -0.0667 F4.0
N30 G01 Z .1 F4.0
N35 G01 X-.2086 Y.2086 F50.0N40 G01 Z -0.0667 F4.0
N45 G01 Z .1 F4.0
N50 G01 X-.225 Y0 F50.0N55 G01 Z -0.0667 F4.0
N60 G01 Z .1 F4.0
N65 G01 X-.2086 Y-.2086 F50.0N70 G01 Z -0.0667 F4.0
N75 G01 Z .1 F4.0
N80 G01 X0 Y-.225 F50.0N85 G01 Z -0.0667 F4.0
N90 G01 Z .1 F4.0
N95 G01 X.2086 Y-.2086 F50.0N100 G01 Z -0.0667 F4.0
N105 G01 Z .1 F4.0
N110 G01 X.225 Y0 F50.0N115 G01 Z -0.0667 F4.0
N120 G01 Z .1 F4.0
N125 G01 X.2086 Y.2086 F50.0N130 G01 Z -0.0667 F4.0
N135 G01 Z .1 F4.0
N140 G80 Z1.
N145 M30
